dist/svg/chart-areastep.svg

<!-- Generated by Trend Micro Style Portal -->
<svg version="1.1" xmlns="http://www.w3.org/2000/svg" width="16" height="16" viewBox="0 0 16 16">
  <title>chart-areastep</title>
  <path fill="rgb(34,34,34)" d="M2 10h3v-2h3v-2h3v-2h4v9h-13zM1 14v-13h-1v14h16v-1z"></path>
</svg>

<svg width="16" height="16" viewBox="0 0 16 16" fill="rgb(34, 34, 34)" xmlns="http://www.w3.org/2000/svg"><title>chart-areastep</title><path d="M2 10H5V8H8V6H11V4H15V13H2V10ZM1 14V1H0V15H16V14H1Z" fill="rgb(34, 34, 34)" fill-opacity="1.00"/></svg>
